X: 1
T: String Quartet in B\b Major opus 33 no 4 mvt 3
C: Franz Joseph Haydn
%%abc-version 2.0
%%abcx-abcm2ps-target-version 5.9.1 (29 Sep 2008)
%%abc-creator hum2abc beta
%%abcx-conversion-date 2021/02/14 14:38:28
%%abc-copyright Copyright (c) 1994, 2000 Center for Computer Assisted Research in the Humanities
%%abc-edited-by Frances Bennion
%%abcx-initial-encoding-date 1997/04/15
%%gracespace 0 6 6
%%humdrum-veritas 91169249
%%humdrum-veritas-data 445220652
%%linebreak <none>
%%barnumbers 0
L: 1/16
M: 3/4
N: Derived from op33n4-03.krn
Q: "Largo"
%%staves [1 2 3 4]
V: 1
V: 2
V: 3 clef=alto
V: 4 clef=bass
K: Eb
[V:1]g3f/g/ a2z2 f2z2 [I:setbarnb2]|
[V:2]e3d/e/ f2z2 d2z2 |
[V:3]B4 D2z2 B2z2 |
[V:4]E4 B,2z2 A,2z2 |
[V:1]b2>e'2 d'2c'b a2gf |
[V:2]e2>G2 A8 |
[V:3]B4 B,4 D4 |
[V:4]G,4 F,4 B,4 |
[V:1]e4 f4 a3b/c'/ |
[V:2]G2G2 c2c2 c2c2 |
[V:3]E2E2 C2C2 A,2A,2 |
[V:4]C2C2 A,2A,2 F,2F,2 |
[V:1]e4 d2z2 >d2ef |
[V:2]G4 F2z6 |
[V:3]B,4 >C4 B,2A,2 |
[V:4]B,4 >A,4 G,2F,2 |
[V:1]g3f/g/ a2z2 f2z2 |
[V:2]e3d/e/ f2z2 d2z2 |
[V:3]G,2B2 D2z2 B2z2 |
[V:4]E,4 B,,2z2 A,,2z2 |
[V:1](3:2:2b2-b//c'/d'/e'/d'2 c'ba2 gf|
[V:2]e2>G2 A4 D4 |
[V:3]B4 B,8 |
[V:4]G,,4 F,,4 F,4 |
[V:1]e2=e2 fgaf _e2d2 |
[V:2]E2_D2 C2cA G2F2 |
[V:3]B,2B,2 A,2A,2 B,2B,2 |
[V:4]G,2G,2 A,2A,2 B,2B,2 |
[V:1]f4 e2z6 |
[V:2]A4 G2z6 |
[V:3]B,4 z8 |
[V:4]E,4 >E,4 G,2B,2 |
[V:1]g3f/g/ agc'=b d'agf |
[V:2]F12 |
[V:3]D12 |
[V:4]=B,12 |
[V:1]fedc =Bc_BA GFED |
[V:2]G4 z8 |
[V:3]E4 z8 |
[V:4]C4 z8 |
[V:1]CDC=B, CDCB, CDCB, |
[V:2]E2E2 E2E2 E2E2 |
[V:3]G,2G,2 G,2G,2 G,2G,2 |
[V:4]E,2E,2 E,2E,2 E,2E,2 |
[V:1]C_DC=B, CDCB, C=DC_B, |
[V:2]B,2B,2 B,2B,2 B,2B,2 |
[V:3]G,2G,2 G,2G,2 G,2G,2 |
[V:4]=E,2E,2 E,2E,2 E,2E,2 |
[V:1]B,=A,C=E F4 z4 |
[V:2]B,=A,C=E FFFF FFFF |
[V:3]F,4 z8 |
[V:4]F,4 z8 |
[V:1]B3=A/B/ c2z2 A2z2 |
[V:2]FFFF FFFF FFFF |
[V:3]D3C/D/ E2z2 C2z2 |
[V:4]z12 |
[V:1]d3c/d/ e2z2 c2z2 |
[V:2]FFFF FFFF FFFF |
[V:3]z12 |
[V:4]B,3=A,/B,/ C4 A,2z2 |
[V:1]f3f/g/ a4 g/e/d/c/g/e/d/c/ |
[V:2]FFFF FFFF EEEE |
[V:3]DDDD DDDD CCCC |
[V:4]B,B,B,B, =B,B,B,B, CC=A,A, |
[V:1]f/d/c/B/e/c/e/c/ B2z2 =A2z2 |
[V:2]DDG/E/G/E/ D2z2 C2z2 |
[V:3]B,B,E,E, F,2z2 E2z2 |
[V:4]B,B,E,E, F,2z2 F,2z2 |
[V:1]B3=A/B/ c2z2 A2z2 |
[V:2]FFFF FFFF FFFF |
[V:3]D3C/D/ E2z2 C2z2 |
[V:4]z12 |
[V:1]_d3c/d/ e2z2 c2z2 |
[V:2]FFFF FFFF FFFF |
[V:3]z12 |
[V:4]B,3=A,/B,/ C2z2 A,2z2 |
[V:1]f3e/f/ _g4 e2c2 |
[V:2]_d3c/d/ e4 _G2E2 |
[V:3]_DDDD B,B,B,B, CCCC |
[V:4]B,B,B,B, E,E,E,E, A,A,A,A, |
[V:1]a3_g/a/ b2g2 e2c2 |
[V:2]_D4 >B4 _G2E2 |
[V:3]_DDDD B,B,B,B, CCEE |
[V:4]F,F,F,F, _G,G,G,G, A,A,A,A, |
[V:1]_d4 z8 |
[V:2]F4 z8 |
[V:3]_D4 z8 |
[V:4]_D,E,D,C, D,E,D,C, D,E,D,C, |
[V:1]d12 |
[V:2]A12 |
[V:3]F12 |
[V:4]B,,_C,B,,=A,, B,,C,B,,A,, B,,_A,,_G,,F,, |
[V:1]e12 |
[V:2]B12 |
[V:3]_G8 =G4 |
[V:4]E,,F,,E,,D,, E,,F,,E,,D,, E,,_F,,E,,_D,, |
[V:1]efed e_gfe dc'ba |
[V:2]E8 F2z2 |
[V:3]A4 =A4 B_AGF |
[V:4]C,,4 C,4 D,4 |
[V:1]g3f/g/ a2z2 f2z2 |
[V:2]e3d/e/ f2z2 d2z2 |
[V:3]E4 D2z2 B2z2 |
[V:4]E,4 B,,2z2 A,2z2 |
[V:1]b2>e'2 d'2c'b a2gf |
[V:2]e2>G2 A8 |
[V:3]B4 B,4 D4 |
[V:4]G,4 F,4 B,4 |
[V:1]e4 f4 a3b/c'/ |
[V:2]G2G2 c2c2 c2c2 |
[V:3]E2E2 C2C2 A,2A,2 |
[V:4]C2C2 A,2A,2 F,2F,2 |
[V:1]e4 d2z2 >d2ef |
[V:2]G4 F2z6 |
[V:3]B,4 >C4 B,2A,2 |
[V:4]B,4 >A,4 G,2F,2 |
[V:1]g3f/g/ a2z2 f2z2 |
[V:2]e3d/e/ f2z2 d2z2 |
[V:3]G,2B2 D2z2 B2z2 |
[V:4]E,4 B,,2z2 A,,2z2 |
[V:1](3:2:2b2-b//c'/d'/e'/d'2 c'ba2 z2|
[V:2]e2>G2 A2z6 |
[V:3]B4 B,2z6 |
[V:4]G,,4 F,,2z6 |
[V:1]b2c'/d'/e'/f'/ g'f'a'f' d'2z2 |
[V:2]e4 d2z6 |
[V:3]G4 A2z6 |
[V:4]E,4 F,2z6 |
[V:1](3:2:2e'2-e'//f'/g'/a'/b'2 b'2=b'2 b'2|
[V:2]eeee eeee eeee |
[V:3]B,B,B,B, B,B,B,B, EEEE |
[V:4]G,G,G,G, G,G,G,G, G,G,G,G, |
[V:1]c''2z2 cd/=e/f/g/a/b/ c'gaf |
[V:2]e2z2 E2z6 |
[V:3]E2z2 C2z6 |
[V:4]A,2z2 A,,2z6 |
[V:1]ebge BGEB, A,AFD |
[V:2]G8 F4 |
[V:3]E8 D4 |
[V:4]B,,12 |
[V:1]E4 z8 |
[V:2]EEEE EEEE EEEE |
[V:3]E4 z8 |
[V:4]E,4 z8 |
[V:1]e3f/e/ d2z2 c2z2 |
[V:2]EEEE EEEE EEEE |
[V:3]C3D/C/ B,2z2 A,2z2 |
[V:4]z12 |
[V:1]B3c/B/ A2z2 G2z2 |
[V:2]EEEE EEEE EEEE |
[V:3]z12 |
[V:4]G,3A,/G,/ F,2z2 E,2z2 |
[V:1]GFAG BAcB AGFE |
[V:2]C12 |
[V:3]A,8 A,2=A,2 |
[V:4]A,,8 A,,2=A,,2 |
[V:1]B,4 z8 |
[V:2]B,BBB BBBB BBBB |
[V:3]B,4 z8 |
[V:4]B,,4 z8 |
[V:1]e3d/e/ f2z2 d2z2 |
[V:2]BBBB BBBB BBBB |
[V:3]G3F/G/ A2z2 F2z2 |
[V:4]z12 |
[V:1]g3f/g/ a2z2 f2z2 |
[V:2]BBBB BBBB BBBB |
[V:3]z12 |
[V:4]E3D/E/ F2z2 D2z2 |
[V:1]b3b/c'/ _d'4 c'/a/g/f/=e/f/a/f/ |
[V:2]EEEE =EEEE FFFF |
[V:3]EEEE BBBB AAAA |
[V:4]G,G,G,G, G,G,G,G, A,A,A,A, |
[V:1]e/f/g/a/b/c'/b/c'/ b2z2 d2z2 |
[V:2]GGGG G2z2 A2z2 |
[V:3]EEEE E2z2 F2z2 |
[V:4]B,B,B,B, B,2z2 B,2z2 |
[V:1]e3d/e/ f2z2 d2z2 |
[V:2]BBBB BBBB BBBB |
[V:3]G3F/G/ A2z2 F2z2 |
[V:4]z12 |
[V:1]_g3f/g/ a2z2 f2z2 |
[V:2]BBBB BBBB BBBB |
[V:3]z12 |
[V:4]E3D/E/ F2z2 D2z2 |
[V:1]b3a/b/ _c'4 a2f2 |
[V:2]_g3f/g/ a4 _c2A2 |
[V:3]_GGGG EEEE FFFF |
[V:4]EEEE A,A,A,A, _DDDD |
[V:1]_d'3_c'/d'/ e'2c'2 a2f2 |
[V:2]_G4 >e4 _c2A2 |
[V:3]_GGGG EEEE FFAA |
[V:4]B,B,B,B, _CCCC _DDDD |
[V:1]_g8 _f4 |
[V:2]B8 B4 |
[V:3]_G4 _D4 D4 |
[V:4]_G,A,G,F, G,A,G,F, G,F,G,=G, |
[V:1]e8 _g4 |
[V:2]_c8 =c4 |
[V:3]_C8 E4 |
[V:4]A,B,A,G, A,B,A,G, A,G,A,=A, |
[V:1]f4 a4 _g4 |
[V:2]d4 f4 e4 |
[V:3]D4 D4 E4 |
[V:4]B,_CB,=A, B,CB,A, B,CB,A, |
[V:1]f_gf=e f=gag ac'ba |
[V:2]ded^c d=efe fagf |
[V:3]B,8 B4 |
[V:4]B,8 D4 |
[V:1]g3f/g/ a2z2 f2z2 |
[V:2]e3d/e/ f2z2 d2z2 |
[V:3]E4 D2z2 B2z2 |
[V:4]E4 B,2z2 A,2z2 |
[V:1](3Bde(3gbe' d'2c'b a2gf |
[V:2]e2>G2 A8 |
[V:3]B4 B,4 D4 |
[V:4]G,4 F,4 B,4 |
[V:1]e4 f4 a3b/c'/ |
[V:2]G2G2 c2c2 c2c2 |
[V:3]E2E2 C2C2 A,2A,2 |
[V:4]C2C2 A,2A,2 F,2F,2 |
[V:1]e4 d2z2 >d2ef |
[V:2]G4 F2z6 |
[V:3]B,4 >C4 B,2A,2 |
[V:4]B,4 >A,4 G,2F,2 |
[V:1]g3f/g/ a2z2 f2z2 |
[V:2]e3d/e/ f2z2 d2z2 |
[V:3]G,2B2 D2z2 B2z2 |
[V:4]E,4 B,,2z2 A,,2z2 |
[V:1]e/f/g/a/b/c'/d'/e'/ d'2c'b a2gf |
[V:2]e2>G2 A4 D4 |
[V:3]B4 B,8 |
[V:4]G,,4 F,,4 F,4 |
[V:1]e2=e2 fgaf _e2d2 |
[V:2]E2_D2 C2cA G2F2 |
[V:3]B,2B,2 A,2A,2 B,2B,2 |
[V:4]G,2G,2 A,2A,2 B,2B,2 |
[V:1]e4 z2c2 B2A2 |
[V:2]E4 z2A2 G2F2 |
[V:3]E4 z2A,2 B,2D2 |
[V:4]E,F,E,D, E,4 z4 |
[V:1]G4 z2A2 G2F2 |
[V:2]E4 z2C2 B,2A,2 |
[V:3]E4 z2A,2 B,2D2 |
[V:4]E,F,E,D, E,4 z4 |
[V:1]E2z2 G2z2 B2z2 |
[V:2]G,2z2 B,2z2 G2z2 |
[V:3]E4 <z4 B,2z2 |
[V:4]E,,F,,E,,D,, E,,F,,E,,D,, E,,F,,E,,D,, |
[V:1]e2(3:2:2z8 z |]
[V:2]E2z8 z2|]
[V:3]G,2z8 z2 |]
[V:4]E,,2z8 z2 |]

